src/pos-icons/file-send.svg

<svg height="24" viewBox="0 0 24 24" width="24" xmlns="http://www.w3.org/2000/svg"><path d="m14 2h-8c-1.11 0-2 .89-2 2v16a2 2 0 0 0 2 2h12a2 2 0 0 0 2-2v-12zm-1.46 17.37v-2h-4v-1.99h4v-2l3 3zm.46-10.37v-5.5l5.5 5.5z"/></svg>

<?xml version="1.0" encoding="UTF-8"?><!DOCTYPE svg PUBLIC "-//W3C//DTD SVG 1.1//EN" "http://www.w3.org/Graphics/SVG/1.1/DTD/svg11.dtd"><svg xmlns="http://www.w3.org/2000/svg" xmlns:xlink="http://www.w3.org/1999/xlink" version="1.1" id="mdi-file-send" width="24" height="24" viewBox="0 0 24 24"><path d="M14,2H6C4.89,2 4,2.89 4,4V20A2,2 0 0,0 6,22H18A2,2 0 0,0 20,20V8L14,2M12.54,19.37V17.37H8.54V15.38H12.54V13.38L15.54,16.38L12.54,19.37M13,9V3.5L18.5,9H13Z" /></svg>
